X: 483
T: A Whistle On The Wind
R: waltz
M: 3/4
K: Amixolydian
G3/2 {c}A/|:{gef}e4 {gfg}f3/2 d/|{gef}e4 {gfg}f3/2 d/|{gBd}B4 {gBG}B/ d3/2|
{gBd}B/ {G}A3 {g}G {c}A/|{gef}e4 {gfg}f3/2 d/|{gef}e4 {A}e3/2 f/|{gf}g4 {gBG}B3/2 g/|
[1 {gBd}B/ {G}A3 {g}G {c}A/:|2 {gBd}B/ {G}A3 {g}e f/|:{gf}g4 {ag}a3/2 f/|{gf}g4 {g}e3/2 f/|
{gf}g4 {gBG}B3/2 d/|{gBd}B/ {G}A3 {g}e f/|{gf}g4 {ag}a3/2 f/|{gf}g4 {g}f3/2 g/|
{ag}a4 {gBG}B3/2 g/|1 {gBd}B/ {G}A3 {g}e f/:|2 {gBd}B/ {G}A3 {g}G {c}A/||{gef}e4 {gfg}f3/2 d/|{gef}e4 {gfg}f3/2 d/|
{gBd}B4 {gBG}B/ d3/2|{gBd}B/ {G}A3 {g}G {c}A/|{gef}e4 {gfg}f3/2 d/|{gef}e4 {A}e3/2 f/|
{gf}g4 {gBG}B3/2 g/|{gBd}B/ {G}A3||

